!!!OTL: Qiyue chusi shangzhandi
!!!ARE: Asia, China,ÿGuangdong Leizhou
!! II, 373, 1)
!!!SCT: C1896
!!!YEM: Copyright 1995, estate of Helmut Schaffrath.
**kern
*ICvox
*Ivox
!! Mixed meters:  3/4; 2/4
*M2/4
*k[b-]
*F:
{8cc
16a
16g
8a
4.cc}
=1
{8a
8cc
16a
16g
4.a}
=2
{8f
8c
8d
8d
8c
8d
=3
8g
8f
4d}
=4
*M3/4
{8g
8g
8f
4f
8r}
=5
*M2/4
{8cc
16d
16f
8g
8g}
=6
*M3/4
{8g
8f
8f
4.d}
=7
*M2/4
{8g
4f
8c
=8
2d}
==
!!!AGN: Xiaodiao, Leizhouge
!!!AMT: irregular
!!!AIN: vox
!!!EED: Helmut Schaffrath
!!!EEV: 1.0
*-
